!!!OTL: BUNT SIND SCHON DIE WAELDER
!!!ARE: Europa, Mitteleuropa, Deutschland
!!!SCT: F0277
!!!YEM: Copyright 1995, estate of Helmut Schaffrath.
**kern
*ICvox
*Ivox
*M6/8
*k[]
*C:
=1
{4c
8c
8c
8B
8c
=2
4.d
4.c}
=3
{4e
8e
8e
8d
8e
=4
4.f
4.e}
=5
{4d
8d
8c
8e
8F#
=6
4.G
4.r}
=7
{4e
8d
4c
8B
=8
4.A
4.A}
=9
{4f
8e
8d
8e
8c
=10
4.B
4.B}
=11
{8c
8e
8g
8G
8A
8B
=12
4.c
4.r}
==
!!!AGN: Jugend - Lied, Jahreszeiten, Herbst
!!!ONB: ESAC (Essen Associative Code) Database: FINK
!!!AMT: compound duple
!!!AIN: vox
!!!EED: Helmut Schaffrath
!!!EEV: 1.0
*-
